assets/images/appstorebutton_white.svg

<svg width="420" height="137" viewBox="0 0 420 137" fill="none" xmlns="http://www.w3.org/2000/svg">
<path d="M26.9647 136.535C25.8353 136.535 24.8471 136.535 23.7176 136.535C21.4588 136.535 19.2 136.253 17.0824 135.971C14.9647 135.547 12.9882 134.982 11.1529 133.994C9.31765 133.006 7.62353 131.877 6.21176 130.324C4.8 128.912 3.52941 127.218 2.54118 125.382C1.55294 123.547 0.988235 121.571 0.564706 119.453C0.141177 117.194 0 115.077 0 112.818C0 112.112 0 109.571 0 109.571V27.2648C0 27.2648 0 24.8648 0 24.0177C0 21.7589 0.282353 19.5 0.564706 17.3824C0.847059 15.2648 1.55294 13.2883 2.54118 11.453C3.52941 9.61769 4.65882 7.92358 6.21176 6.51181C7.62353 5.10005 9.31765 3.82946 11.1529 2.84123C12.9882 1.85299 14.9647 1.28828 17.0824 0.864755C19.3412 0.441225 21.4588 0.300049 23.7176 0.300049H26.9647H393.035H396.282C398.541 0.300049 400.659 0.582402 402.918 0.864755C405.035 1.14711 407.012 1.85299 408.847 2.84123C412.518 4.67652 415.482 7.7824 417.459 11.453C418.447 13.2883 419.012 15.2648 419.435 17.3824C419.859 19.6412 420 21.9 420 24.1589C420 25.1471 420 26.2765 420 27.2648C420 28.5353 420 29.8059 420 31.2177V105.759C420 107.029 420 108.3 420 109.571C420 110.7 420 111.829 420 112.818C420 115.077 419.718 117.194 419.435 119.453C419.153 121.571 418.447 123.547 417.459 125.382C416.471 127.218 415.341 128.912 413.788 130.324C412.376 131.735 410.682 133.006 408.847 133.994C407.012 134.982 405.035 135.547 402.918 135.971C400.659 136.394 398.541 136.535 396.282 136.535C395.294 136.535 394.165 136.535 393.035 136.535H389.224H26.9647Z" fill="white"/>
<path d="M85.8354 67.9235C85.9766 61.5705 89.2236 55.7823 94.5883 52.5352C91.2001 47.7352 85.6942 44.7705 79.7648 44.4882C73.553 43.7823 67.4824 48.1588 64.3766 48.1588C61.1295 48.1588 56.3295 44.4882 50.9648 44.6294C44.0471 44.9117 37.6942 48.7235 34.4471 54.7941C27.2471 67.2176 32.6118 85.4294 39.5295 95.4529C42.9177 100.394 47.0118 105.9 52.2354 105.618C57.3177 105.335 59.2942 102.371 65.506 102.371C71.7177 102.371 73.4118 105.618 78.7766 105.476C84.2824 105.335 87.8118 100.535 91.0589 95.5941C93.4589 92.0647 95.4354 88.2529 96.706 84.1588C90.2118 81.4764 85.8354 75.1235 85.8354 67.9235Z" fill="black"/>
<path d="M75.8121 37.9941C78.7768 34.3235 80.3297 29.8059 79.9062 25.0059C75.2474 25.4294 71.0121 27.6882 68.0474 31.2176C65.0827 34.6059 63.5297 39.1235 63.8121 43.6412C68.4709 43.7823 72.8474 41.6647 75.8121 37.9941Z" fill="black"/>
<path d="M147.53 93.7588H130.73L126.636 105.759H119.436L135.388 61.5706H142.871L158.824 105.759H151.624L147.53 93.7588ZM132.424 88.2529H145.836L139.2 68.9117H139.059L132.424 88.2529Z" fill="black"/>
<path d="M193.271 89.6646C193.271 99.6881 187.906 106.182 179.859 106.182C175.624 106.465 171.671 104.206 169.694 100.535H169.553V116.488H162.918V73.5705H169.271V78.9352H169.412C171.53 75.2646 175.483 73.147 179.718 73.2881C187.906 73.147 193.271 79.6411 193.271 89.6646ZM186.494 89.6646C186.494 83.1705 183.106 78.794 178.024 78.794C172.941 78.794 169.553 83.1705 169.553 89.6646C169.553 96.1587 172.941 100.535 178.024 100.535C183.106 100.535 186.494 96.2999 186.494 89.6646Z" fill="black"/>
<path d="M228.847 89.6646C228.847 99.6881 223.482 106.182 215.435 106.182C211.2 106.465 207.247 104.206 205.271 100.535H205.129V116.488H198.494V73.5705H204.847V78.9352H204.988C207.106 75.2646 211.059 73.147 215.294 73.2881C223.482 73.147 228.847 79.6411 228.847 89.6646ZM222.071 89.6646C222.071 83.1705 218.682 78.794 213.6 78.794C208.518 78.794 205.129 83.1705 205.129 89.6646C205.129 96.1587 208.518 100.535 213.6 100.535C218.682 100.535 222.071 96.2999 222.071 89.6646Z" fill="black"/>
<path d="M252.282 93.4765C252.705 97.853 257.082 100.677 262.87 100.677C268.517 100.677 272.47 97.853 272.47 93.9C272.47 90.5118 270.07 88.3942 264.282 86.9824L258.494 85.5706C250.305 83.5942 246.635 79.7824 246.635 73.7118C246.635 66.0883 253.27 60.8647 262.729 60.8647C272.046 60.8647 278.541 66.0883 278.682 73.7118H272.046C271.623 69.3353 267.952 66.653 262.729 66.653C257.505 66.653 253.694 69.3353 253.694 73.2883C253.694 76.3942 256.094 78.2295 261.741 79.6412L266.682 80.7706C275.717 82.8883 279.529 86.5589 279.529 93.053C279.529 101.382 272.894 106.465 262.446 106.465C252.705 106.465 246.07 101.382 245.646 93.3353L252.282 93.4765Z" fill="black"/>
<path d="M293.788 65.947V73.5706H299.859V78.7941H293.788V96.5823C293.788 99.4058 295.059 100.676 297.741 100.676C298.447 100.676 299.153 100.676 299.859 100.535V105.759C298.588 106.041 297.459 106.041 296.188 106.041C289.694 106.041 287.153 103.641 287.153 97.2882V78.7941H282.494V73.5706H287.153V65.947H293.788Z" fill="black"/>
<path d="M303.389 89.6646C303.389 79.4999 309.318 73.147 318.636 73.147C327.953 73.147 333.883 79.4999 333.883 89.6646C333.883 99.8293 327.953 106.182 318.636 106.182C309.318 106.182 303.389 99.8293 303.389 89.6646ZM327.247 89.6646C327.247 82.747 324 78.6529 318.636 78.6529C313.271 78.6529 310.024 82.747 310.024 89.6646C310.024 96.7234 313.271 100.676 318.636 100.676C324.142 100.676 327.247 96.5823 327.247 89.6646Z" fill="black"/>
<path d="M339.529 73.5707H345.882V79.0766H346.023C346.87 75.5472 350.118 73.1472 353.788 73.2884C354.494 73.2884 355.341 73.4296 356.047 73.5707V79.7825C355.059 79.5001 354.07 79.359 353.082 79.359C349.412 79.2178 346.306 82.0413 346.165 85.7119C346.165 85.9943 346.165 86.4178 346.165 86.7001V105.759H339.529V73.5707Z" fill="black"/>
<path d="M386.541 96.2999C385.694 102.088 379.906 106.182 372.706 106.182C363.388 106.182 357.459 99.8293 357.459 89.8058C357.459 79.6411 363.247 73.147 372.424 73.147C381.318 73.147 386.965 79.2176 386.965 89.0999V91.3587H364.094V91.6411C363.671 96.2999 367.059 100.394 371.718 100.818C372 100.818 372.424 100.818 372.706 100.818C375.953 101.1 378.918 99.2646 380.188 96.2999H386.541ZM364.094 86.6999H380.188C380.471 82.4646 377.083 78.794 372.847 78.5117C372.706 78.5117 372.424 78.5117 372.282 78.5117C367.906 78.5117 364.094 82.0411 364.094 86.6999C364.094 86.6999 364.094 86.5587 364.094 86.6999Z" fill="black"/>
<path d="M131.577 28.2528C136.8 27.8293 141.318 31.7822 141.6 37.0057C141.6 37.5704 141.6 38.2763 141.6 38.841C141.6 45.6175 137.93 49.5704 131.577 49.5704H123.953V28.2528H131.577ZM127.2 46.4645H131.153C134.824 46.7469 138.071 43.9234 138.212 40.2528C138.212 39.8293 138.212 39.2645 138.212 38.841C138.777 35.1704 136.094 31.7822 132.424 31.3587C132 31.3587 131.577 31.2175 131.153 31.3587H127.2V46.4645Z" fill="black"/>
<path d="M145.271 41.5234C144.848 37.2881 147.953 33.6175 152.048 33.194C156.283 32.7704 159.953 35.8763 160.377 39.9704C160.377 40.394 160.377 40.9587 160.377 41.3822C160.801 45.6175 157.695 49.2881 153.601 49.7116C149.365 50.1351 145.695 47.0293 145.271 42.9351C145.271 42.5116 145.271 41.9469 145.271 41.5234ZM157.13 41.5234C157.13 37.994 155.577 36.0175 152.895 36.0175C150.212 36.0175 148.659 37.994 148.659 41.5234C148.659 45.0528 150.212 47.0293 152.895 47.0293C155.577 47.0293 157.13 44.9116 157.13 41.5234Z" fill="black"/>
<path d="M180.565 49.4293H177.318L174.071 37.5705H173.789L170.541 49.4293H167.294L162.918 33.3352H166.165L168.989 45.6176H169.271L172.518 33.3352H175.624L178.871 45.6176H179.153L181.977 33.3352H185.083L180.565 49.4293Z" fill="black"/>
<path d="M188.754 33.4764H191.86V36.0176H192.142C192.989 34.1823 194.824 33.0529 196.942 33.194C199.766 32.9117 202.307 35.1705 202.589 37.994C202.589 38.4176 202.589 38.6999 202.589 39.1235V49.5705H199.483V39.9705C199.483 37.4293 198.354 36.1588 195.954 36.1588C193.977 36.0176 192.142 37.5705 192.142 39.6882C192.142 39.8293 192.142 40.1117 192.142 40.2529V49.5705H189.036L188.754 33.4764Z" fill="black"/>
<path d="M207.389 27.1235H210.495V49.4294H207.389V27.1235Z" fill="black"/>
<path d="M214.871 41.5234C214.447 37.2881 217.553 33.6175 221.647 33.194C225.882 32.7704 229.553 35.8763 229.977 39.9704C229.977 40.394 229.977 40.9587 229.977 41.3822C230.4 45.6175 227.294 49.2881 223.2 49.7116C219.106 50.1351 215.294 47.0293 214.871 42.9351C214.871 42.5116 214.871 41.9469 214.871 41.5234ZM226.73 41.5234C226.73 37.994 225.177 36.0175 222.494 36.0175C219.812 36.0175 218.259 37.994 218.259 41.5234C218.259 45.0528 219.812 47.0293 222.494 47.0293C225.177 47.0293 226.73 44.9116 226.73 41.5234Z" fill="black"/>
<path d="M233.366 44.9116C233.366 42.088 235.483 40.3939 239.295 40.1116L243.672 39.8292V38.4174C243.672 36.7233 242.542 35.7351 240.425 35.7351C238.589 35.7351 237.46 36.441 237.036 37.5704H233.93C234.213 34.7469 236.895 33.0527 240.425 33.0527C244.378 33.0527 246.778 35.0292 246.778 38.4174V49.4292H243.672V47.1704H243.389C242.401 48.8645 240.566 49.7116 238.589 49.7116C235.907 49.9939 233.507 48.0174 233.225 45.3351C233.366 45.3351 233.366 45.0527 233.366 44.9116ZM243.672 43.641V42.2292L239.719 42.5116C237.46 42.6527 236.472 43.3586 236.472 44.7704C236.472 46.1821 237.742 47.0292 239.436 47.0292C241.695 47.3116 243.53 45.7586 243.672 43.641Z" fill="black"/>
<path d="M251.012 41.5232C251.012 36.4409 253.553 33.1938 257.647 33.1938C259.624 33.0526 261.6 34.1821 262.588 36.0173H262.871V27.2644H265.976V49.5703H263.012V47.0291H262.729C261.741 48.8644 259.765 49.8526 257.647 49.8526C253.553 49.7115 251.012 46.6056 251.012 41.5232ZM254.259 41.5232C254.259 44.9115 255.812 47.0291 258.494 47.0291C261.176 47.0291 262.871 44.9115 262.871 41.5232C262.871 38.135 261.176 36.0173 258.494 36.0173C255.953 36.0173 254.259 38.135 254.259 41.5232Z" fill="black"/>
<path d="M279.107 41.5234C278.684 37.2881 281.789 33.6175 285.884 33.194C290.119 32.7704 293.789 35.8763 294.213 39.9704C294.213 40.394 294.213 40.9587 294.213 41.3822C294.636 45.6175 291.531 49.2881 287.436 49.7116C283.201 50.1351 279.531 47.0293 279.107 42.9351C279.107 42.5116 279.107 41.9469 279.107 41.5234ZM290.966 41.5234C290.966 37.994 289.413 36.0175 286.731 36.0175C284.048 36.0175 282.495 37.994 282.495 41.5234C282.495 45.0528 284.048 47.0293 286.731 47.0293C289.413 47.0293 290.966 44.9116 290.966 41.5234Z" fill="black"/>
<path d="M298.447 33.4764H301.553V36.0176H301.835C302.683 34.1823 304.518 33.0529 306.636 33.194C309.459 32.9117 312 35.1705 312.283 37.994C312.283 38.4176 312.283 38.6999 312.283 39.1235V49.5705H309.177V39.9705C309.177 37.4293 308.047 36.1588 305.647 36.1588C303.671 36.0176 301.835 37.5705 301.835 39.6882C301.835 39.8293 301.835 40.1117 301.835 40.2529V49.5705H298.73V33.4764H298.447Z" fill="black"/>
<path d="M329.93 29.5234V33.6176H333.46V36.2999H329.93V44.4881C329.93 46.1823 330.636 46.8881 332.189 46.8881C332.613 46.8881 333.036 46.8881 333.46 46.747V49.4293C332.895 49.5705 332.33 49.5705 331.766 49.5705C328.236 49.5705 326.824 48.2999 326.824 45.194V36.1587H324.283V33.4764H326.824V29.5234H329.93Z" fill="black"/>
<path d="M337.836 27.1235H340.942V36.0177H341.224C342.071 34.1824 344.048 32.9118 346.165 33.1941C349.13 33.0529 351.53 35.3118 351.671 38.1353C351.671 38.4177 351.671 38.8412 351.671 39.1235V49.4294H348.565V39.8294C348.565 37.2882 347.436 36.0177 345.177 36.0177C343.059 35.8765 341.365 37.4294 341.083 39.4059C341.083 39.6882 341.083 39.8294 341.083 40.1118V49.4294H337.977L337.836 27.1235Z" fill="black"/>
<path d="M370.023 45.194C369.176 48.1587 366.211 50.1352 363.105 49.8529C359.152 49.994 355.764 46.747 355.623 42.794C355.623 42.3705 355.623 41.947 355.623 41.6646C355.058 37.5705 357.881 33.8999 361.976 33.3352C362.258 33.3352 362.681 33.3352 362.964 33.3352C367.481 33.3352 370.164 36.4411 370.164 41.3823V42.5117H358.87V42.6528C358.729 45.0528 360.423 47.0293 362.681 47.1705C362.823 47.1705 362.964 47.1705 363.105 47.1705C364.658 47.3117 366.211 46.6058 366.917 45.194H370.023ZM358.87 39.9705H366.917C367.058 37.8529 365.505 36.0176 363.387 35.8764C363.246 35.8764 363.105 35.8764 362.964 35.8764C360.846 35.7352 358.87 37.5705 358.87 39.9705Z" fill="black"/>
</svg>

<svg fill="none" height="137" width="420" xmlns="http://www.w3.org/2000/svg"><path d="M26.965 136.535h-3.247c-2.26 0-4.518-.282-6.636-.564-2.117-.424-4.094-.989-5.93-1.977-1.834-.988-3.528-2.117-4.94-3.67a21.417 21.417 0 0 1-3.67-4.942c-.99-1.835-1.554-3.811-1.977-5.929C.14 117.194 0 115.077 0 112.818v-88.8c0-2.26.282-4.518.565-6.636.282-2.117.988-4.094 1.976-5.929s2.118-3.53 3.67-4.941a21.423 21.423 0 0 1 4.942-3.67c1.835-.989 3.812-1.554 5.93-1.977C19.34.44 21.458.3 23.717.3h372.564c2.259 0 4.377.282 6.636.565 2.117.282 4.094.988 5.929 1.976 3.671 1.836 6.635 4.941 8.612 8.612.988 1.835 1.553 3.812 1.976 5.93.424 2.258.565 4.517.565 6.776v88.659c0 2.259-.282 4.376-.565 6.635-.282 2.118-.988 4.094-1.976 5.929-.988 1.836-2.118 3.53-3.671 4.942a21.446 21.446 0 0 1-4.941 3.67c-1.835.988-3.812 1.553-5.929 1.977-2.259.423-4.377.564-6.636.564H26.964z" fill="#fff"/><path d="M85.835 67.924c.142-6.354 3.389-12.142 8.753-15.389-3.388-4.8-8.894-7.764-14.823-8.047-6.212-.706-12.283 3.67-15.388 3.67-3.247 0-8.047-3.67-13.412-3.529-6.918.283-13.27 4.095-16.518 10.165-7.2 12.424-1.835 30.635 5.082 40.659 3.389 4.941 7.483 10.447 12.706 10.165 5.083-.283 7.06-3.247 13.271-3.247 6.212 0 7.906 3.247 13.27 3.105 5.506-.141 9.036-4.941 12.283-9.882 2.4-3.53 4.376-7.341 5.647-11.435-6.494-2.683-10.87-9.035-10.87-16.236zm-10.023-29.93c2.965-3.67 4.518-8.188 4.094-12.988a17.551 17.551 0 0 0-11.859 6.212 17.35 17.35 0 0 0-4.235 12.423c4.659.141 9.035-1.976 12-5.647zM147.53 93.76h-16.8l-4.094 12h-7.2l15.952-44.188h7.483l15.953 44.188h-7.2zm-15.106-5.506h13.412L139.2 68.912h-.141l-6.635 19.34zm60.847 1.412c0 10.023-5.365 16.517-13.412 16.517-4.235.283-8.188-1.976-10.165-5.647h-.141v15.953h-6.635V73.57h6.353v5.365h.141c2.118-3.67 6.071-5.788 10.306-5.647 8.188-.141 13.553 6.353 13.553 16.377zm-6.777 0c0-6.495-3.388-10.871-8.47-10.871-5.083 0-8.471 4.377-8.471 10.87 0 6.495 3.388 10.871 8.471 10.871 5.082 0 8.47-4.235 8.47-10.87zm42.353 0c0 10.023-5.365 16.517-13.412 16.517-4.235.283-8.188-1.976-10.164-5.647h-.142v15.953h-6.635V73.57h6.353v5.365h.141c2.118-3.67 6.071-5.788 10.306-5.647 8.188-.141 13.553 6.353 13.553 16.377zm-6.776 0c0-6.495-3.389-10.871-8.471-10.871s-8.471 4.377-8.471 10.87c0 6.495 3.389 10.871 8.471 10.871s8.471-4.235 8.471-10.87zm30.211 3.811c.423 4.377 4.8 7.201 10.588 7.201 5.647 0 9.6-2.824 9.6-6.777 0-3.388-2.4-5.506-8.188-6.918l-5.788-1.411c-8.189-1.977-11.859-5.789-11.859-11.86 0-7.623 6.635-12.846 16.094-12.846 9.317 0 15.812 5.223 15.953 12.847h-6.636c-.423-4.377-4.094-7.059-9.317-7.059-5.224 0-9.035 2.682-9.035 6.635 0 3.106 2.4 4.942 8.047 6.353l4.941 1.13c9.035 2.117 12.847 5.788 12.847 12.282 0 8.329-6.635 13.412-17.083 13.412-9.741 0-16.376-5.083-16.8-13.13l6.636.142zm41.506-27.529v7.624h6.071v5.223h-6.071v17.788c0 2.824 1.271 4.094 3.953 4.094.706 0 1.412 0 2.118-.141v5.224c-1.271.282-2.4.282-3.671.282-6.494 0-9.035-2.4-9.035-8.753V78.794h-4.659v-5.223h4.659v-7.624h6.635zm9.601 23.718c0-10.165 5.929-16.518 15.247-16.518 9.317 0 15.247 6.353 15.247 16.518 0 10.164-5.93 16.517-15.247 16.517-9.318 0-15.247-6.353-15.247-16.517zm23.858 0c0-6.918-3.247-11.012-8.611-11.012-5.365 0-8.612 4.094-8.612 11.012 0 7.058 3.247 11.011 8.612 11.011 5.506 0 8.611-4.094 8.611-11.011zm12.282-16.094h6.353v5.506h.141c.847-3.53 4.095-5.93 7.765-5.789.706 0 1.553.142 2.259.283v6.212a10.747 10.747 0 0 0-2.965-.424c-3.67-.141-6.776 2.682-6.917 6.353v20.047h-6.636V73.571zM386.541 96.3c-.847 5.788-6.635 9.882-13.835 9.882-9.318 0-15.247-6.353-15.247-16.376 0-10.165 5.788-16.659 14.965-16.659 8.894 0 14.541 6.07 14.541 15.953v2.259h-22.871v.282c-.423 4.659 2.965 8.753 7.624 9.177h.988c3.247.282 6.212-1.553 7.482-4.518zm-22.447-9.6h16.094c.283-4.235-3.105-7.906-7.341-8.188h-.565c-4.376 0-8.188 3.53-8.188 8.188zM131.577 28.253a9.273 9.273 0 0 1 10.023 8.753v1.835c0 6.776-3.67 10.73-10.023 10.73h-7.624V28.252h7.624zM127.2 46.465h3.953c3.671.282 6.918-2.542 7.059-6.212V38.84c.565-3.67-2.118-7.059-5.788-7.482-.424 0-.847-.142-1.271 0H127.2v15.105zm18.071-4.942c-.423-4.235 2.682-7.906 6.777-8.329 4.235-.424 7.905 2.682 8.329 6.776v1.412c.424 4.236-2.682 7.906-6.776 8.33-4.236.423-7.906-2.683-8.33-6.777zm11.859 0c0-3.529-1.553-5.506-4.235-5.506-2.683 0-4.236 1.977-4.236 5.506 0 3.53 1.553 5.506 4.236 5.506 2.682 0 4.235-2.117 4.235-5.506zm23.435 7.906h-3.247l-3.247-11.858h-.282l-3.248 11.858h-3.247l-4.376-16.094h3.247l2.824 12.283h.282l3.247-12.283h3.106l3.247 12.283h.282l2.824-12.283h3.106zm8.189-15.953h3.106v2.542h.282c.847-1.836 2.682-2.965 4.8-2.824 2.824-.282 5.365 1.976 5.647 4.8v11.577h-3.106v-9.6c0-2.542-1.129-3.812-3.529-3.812-1.977-.141-3.812 1.412-3.812 3.53v9.882h-3.106zm18.635-6.352h3.106v22.305h-3.106V27.123zm7.482 14.4c-.424-4.236 2.682-7.907 6.776-8.33 4.235-.424 7.906 2.682 8.33 6.776v1.412c.423 4.236-2.683 7.906-6.777 8.33-4.094.423-7.906-2.683-8.329-6.777v-1.412zm11.859 0c0-3.53-1.553-5.507-4.236-5.507-2.682 0-4.235 1.977-4.235 5.506 0 3.53 1.553 5.506 4.235 5.506 2.683 0 4.236-2.117 4.236-5.506zm6.636 3.388c0-2.824 2.117-4.518 5.929-4.8l4.377-.283v-1.412c0-1.694-1.13-2.682-3.247-2.682-1.836 0-2.965.706-3.389 1.835h-3.106c.283-2.823 2.965-4.517 6.495-4.517 3.953 0 6.353 1.976 6.353 5.364V49.43h-3.106v-2.26h-.283c-.988 1.694-2.823 2.542-4.8 2.542-2.682.282-5.082-1.695-5.364-4.377.141 0 .141-.282.141-.423zm10.306-1.271v-1.412l-3.953.283c-2.259.14-3.247.847-3.247 2.258 0 1.412 1.27 2.26 2.964 2.26 2.259.282 4.094-1.271 4.236-3.389zm7.34-2.118c0-5.082 2.541-8.33 6.635-8.33 1.977-.14 3.953.99 4.941 2.824h.283v-8.753h3.105V49.57h-2.964v-2.54h-.283c-.988 1.834-2.964 2.823-5.082 2.823-4.094-.142-6.635-3.247-6.635-8.33zm3.247 0c0 3.388 1.553 5.506 4.235 5.506s4.377-2.118 4.377-5.506-1.695-5.506-4.377-5.506c-2.541 0-4.235 2.118-4.235 5.506zm24.848 0c-.423-4.235 2.682-7.906 6.777-8.329 4.235-.424 7.905 2.682 8.329 6.776v1.412c.423 4.236-2.682 7.906-6.777 8.33-4.235.423-7.905-2.683-8.329-6.777zm11.859 0c0-3.529-1.553-5.506-4.235-5.506-2.683 0-4.236 1.977-4.236 5.506 0 3.53 1.553 5.506 4.236 5.506 2.682 0 4.235-2.117 4.235-5.506zm7.481-8.047h3.106v2.542h.282c.848-1.836 2.683-2.965 4.801-2.824 2.823-.282 5.364 1.976 5.647 4.8v11.577h-3.106v-9.6c0-2.542-1.13-3.812-3.53-3.812-1.976-.141-3.812 1.412-3.812 3.53v9.882h-3.105V33.476zm31.483-3.953v4.095h3.53V36.3h-3.53v8.188c0 1.694.706 2.4 2.259 2.4.424 0 .847 0 1.271-.141v2.682c-.565.142-1.13.142-1.694.142-3.53 0-4.942-1.271-4.942-4.377v-9.035h-2.541v-2.683h2.541v-3.953zm7.906-2.4h3.106v8.895h.282c.847-1.836 2.824-3.106 4.941-2.824 2.965-.141 5.365 2.118 5.506 4.941V49.43h-3.106v-9.6c0-2.54-1.129-3.811-3.388-3.811-2.118-.142-3.812 1.411-4.094 3.388V49.43h-3.106l-.141-22.306zm32.187 18.071c-.847 2.965-3.812 4.941-6.918 4.659-3.953.141-7.341-3.106-7.482-7.059v-1.13c-.565-4.093 2.258-7.764 6.353-8.329h.988c4.517 0 7.2 3.106 7.2 8.047v1.13H358.87v.14c-.141 2.4 1.553 4.377 3.811 4.518h.424c1.553.142 3.106-.564 3.812-1.976zM358.87 39.97h8.047c.141-2.117-1.412-3.952-3.53-4.094h-.423c-2.118-.14-4.094 1.695-4.094 4.095z" fill="#000"/></svg>
